X: 20817
T: Johnny When You Die
R: reel
M: 4/4
K: Gmajor
AB ~B2 e2dB|A2 GA BA A2|eB ~B2 eBdB|A2 GA BGG2|
AB ~B2 e2dB|A2 GA BA A2|GB ~B2 dB~B2|A2 GA BG G2||
g2 fg e2df|g2 fg eaaf|g2 fg ~e2dB|A2 GA BG G2|
g2 fg e2df|g2 fg eaaf|gbag ~e2dB|A2 GA BG G2||

